svgs/duotone/circle-8.svg

<svg xmlns="http://www.w3.org/2000/svg" viewBox="0 0 512 512"><!--! Font Awesome Pro 6.1.1 by @fontawesome - https://fontawesome.com License - https://fontawesome.com/license (Commercial License) Copyright 2022 Fonticons, Inc. --><defs><style>.fa-secondary{opacity:.4}</style></defs><path class="fa-primary" d="M322.1 242.1C330.7 230.3 336 215.8 336 200C336 160.3 303.7 128 264 128h-16C208.3 128 176 160.3 176 200c0 15.77 5.254 30.26 13.9 42.13C171.8 256.8 160 278.9 160 304C160 348.1 195.9 384 240 384h32c44.13 0 80-35.88 80-80C352 278.9 340.2 256.8 322.1 242.1zM248 176h16C277.2 176 288 186.8 288 200S277.2 224 264 224h-16C234.8 224 224 213.2 224 200S234.8 176 248 176zM272 336h-32c-17.66 0-32-14.34-32-32s14.34-32 32-32h32c17.66 0 32 14.34 32 32S289.7 336 272 336z"/><path class="fa-secondary" d="M256 0C114.6 0 0 114.6 0 256s114.6 256 256 256s256-114.6 256-256S397.4 0 256 0zM272 384h-32C195.9 384 160 348.1 160 304c0-25.06 11.81-47.19 29.9-61.87C181.3 230.3 176 215.8 176 200C176 160.3 208.3 128 248 128h16c39.69 0 72 32.31 72 72c0 15.77-5.254 30.26-13.9 42.13C340.2 256.8 352 278.9 352 304C352 348.1 316.1 384 272 384zM248 224h16C277.2 224 288 213.2 288 200S277.2 176 264 176h-16C234.8 176 224 186.8 224 200S234.8 224 248 224zM272 272h-32c-17.66 0-32 14.34-32 32s14.34 32 32 32h32c17.66 0 32-14.34 32-32S289.7 272 272 272z"/></svg>

<svg xmlns="http://www.w3.org/2000/svg" viewBox="0 0 512 512"><!--! Font Awesome Pro 6.5.1 by @fontawesome - https://fontawesome.com License - https://fontawesome.com/license (Commercial License) Copyright 2023 Fonticons, Inc. --><defs><style>.fa-secondary{opacity:.4}</style></defs><path class="fa-secondary" d="M0 256a256 256 0 1 1 512 0A256 256 0 1 1 0 256zM264 128H248c-39.8 0-72 32.2-72 72c0 15.7 5 30.1 13.5 42c-18 14.7-29.5 37-29.5 62c0 44.2 35.8 80 80 80h32c44.2 0 80-35.8 80-80c0-25-11.5-47.4-29.5-62c8.5-11.8 13.5-26.3 13.5-42c0-39.8-32.2-72-72-72zm-16 96c-13.2 0-24-10.8-24-24s10.7-24 24-24h16c13.3 0 24 10.7 24 24s-10.7 24-24 24c0 0 0 0 0 0H248s0 0 0 0zm16 48h8c17.7 0 32 14.3 32 32s-14.3 32-32 32H240c-17.7 0-32-14.3-32-32s14.3-32 32-32h8 16z"/><path class="fa-primary" d="M336 200c0-39.8-32.2-72-72-72H248c-39.8 0-72 32.2-72 72c0 15.7 5 30.1 13.5 42c-18 14.7-29.5 37-29.5 62c0 44.2 35.8 80 80 80h32c44.2 0 80-35.8 80-80c0-25-11.5-47.4-29.5-62c8.5-11.8 13.5-26.3 13.5-42zm-72 72h8c17.7 0 32 14.3 32 32s-14.3 32-32 32H240c-17.7 0-32-14.3-32-32s14.3-32 32-32h8c0 0 0 0 0 0h16c0 0 0 0 0 0zm0-48H248c-13.2 0-24-10.8-24-24s10.7-24 24-24h16c13.3 0 24 10.7 24 24s-10.7 24-24 24z"/></svg>
